X: 358
T: Xioying gaocuang
L: 1/8
M: 2/4
K: G
A2B A [I:setbarnb 1]| 
G F E D | 
A2d A | 
G F E D | 
A2A2 | 
B2A B | 
G2D E | 
G4 | 
B2G A | 
B2G A | 
B2G A | 
B A/ B/ F E | 
D B, D E | 
B> B A G | 
G B, D E | 
D4 | 
B2G A | 
B A/ B/ F E | 
D B, D E | 
B> B A G | 
G B, D E | 
D4 |]

@@@ Tune index: 9232
